app/dist/common/images/kyocera.svg

<svg height="18" viewBox="0 0 18 18" width="18" xmlns="http://www.w3.org/2000/svg"><path d="m0 0h18v18h-18z" fill="#f0f3fa"/><g fill="#df0522"><path d="m8.04 6h-3.04v3zm0 6h-3.04v-3z"/><path d="m8 12 3-3-3-3zm3-6h-2.96l1.92-2h3.04v3.06l-2 1.94zm0 6h-2.96l1.92 2h3.04v-3.06l-2-1.94z"/></g></svg>

<!-- by TradingView --><svg xmlns="http://www.w3.org/2000/svg" width="18" height="18" viewBox="0 0 18 18"><path fill="#F0F3FA" d="M0 0h18v18H0z"/><path d="M8.04 6H5v3l3.04-3ZM8.04 12H5V9l3.04 3Z" fill="#DF0522"/><path d="m8 12 3-3-3-3v6ZM11 6H8.04l1.92-2H13v3.06L11 9V6ZM11 12H8.04l1.92 2H13v-3.06L11 9v3Z" fill="#DF0522"/></svg>
